src/img/action-figure.svg

<svg width="598" height="241" viewBox="0 0 598 241" fill="none" xmlns="http://www.w3.org/2000/svg">
<circle cx="120.025" cy="120.918" r="120.025" fill="#537322"/>
<circle cx="294.163" cy="120.918" r="120.025" fill="#405919"/>
<circle cx="477.976" cy="120.918" r="120.025" fill="#537322"/>
<path d="M71.4394 115.08H69.6394L69.7394 112.8H71.3394L71.4394 115.08ZM69.4394 128C69.6994 124.16 69.7594 120.5 69.7394 117.06H71.3394C71.2194 120.34 71.3194 124.02 71.7394 128H69.4394ZM84.4943 128H81.9343L82.3143 121.36C82.3143 119.28 81.6943 118.26 80.0943 118.26C77.8943 118.26 76.8543 119.58 76.8543 121.72L77.1543 128H74.6543L74.9543 116.96H76.7543V118.28C77.6143 117.6 78.7743 116.8 80.2943 116.8C82.7943 116.8 84.0743 118.38 84.2143 121.4L84.4943 128ZM95.2077 118.88C94.1877 118.38 93.0877 118.1 91.9277 118.1C90.1277 118.1 89.1477 118.76 89.1477 119.84C89.1477 120.82 89.7277 121.28 91.6477 121.7L92.2677 121.84C94.8077 122.38 95.7877 123.2 95.7877 124.98C95.7877 127.02 94.0877 128.28 91.2677 128.28C90.1077 128.28 88.8477 128.06 87.4277 127.6V124.96C88.7677 125.66 90.0477 126 91.3077 126C93.0077 126 93.7477 125.48 93.7477 124.54C93.5277 124.14 93.3477 123.86 93.1877 123.68C93.0477 123.5 92.4077 123.3 91.2877 123.04L90.6677 122.9C88.4477 122.44 87.5077 121.72 87.5077 120.02C87.5077 117.96 89.0277 116.8 91.7077 116.8C93.0477 116.8 94.2277 117 95.2077 117.38V118.88ZM101.017 132.16H98.7168L99.5968 125.46V117.22H101.397L101.097 118.72C101.837 117.42 102.997 116.8 104.597 116.8C107.257 116.8 109.077 119.1 109.077 122.54C109.077 125.98 107.257 128.28 104.597 128.28C102.997 128.28 101.837 127.66 101.097 126.36L101.017 132.16ZM107.917 122.22C107.917 119.58 106.777 118 104.857 118C102.957 118 101.817 119.58 101.817 122.22C101.817 124.88 103.057 125.32 104.957 125.32C106.857 125.32 107.917 124.88 107.917 122.22ZM113.998 115.08H112.198L112.298 112.8H113.898L113.998 115.08ZM111.998 128C112.258 124.16 112.318 120.5 112.298 117.06H113.898C113.778 120.34 113.878 124.02 114.298 128H111.998ZM123.853 118.94C123.453 118.7 123.073 118.7 122.493 118.7C120.473 118.7 119.633 120.18 119.633 122.54L120.033 128H117.213C118.033 123.48 118.133 121.84 117.973 117.16H119.633V118.28C119.993 118 121.293 117 123.033 117C123.273 117 123.473 117.02 123.833 117.1L123.853 118.94ZM133.533 117.06H135.073L135.033 128H133.533V126.36C132.773 127.66 131.633 128.28 130.033 128.28C127.393 128.28 125.553 125.98 125.553 122.54C125.553 119.1 127.393 116.8 130.033 116.8C131.633 116.8 132.773 117.42 133.533 118.72V117.06ZM126.853 122.34C127.153 124.26 127.953 125.02 129.853 125.02C131.753 125.02 132.353 124.62 132.593 122.2C132.653 119.56 131.813 118.1 129.893 118.1C127.993 118.1 126.853 119.7 126.853 122.34ZM143.301 118.22C140.961 118.22 139.721 119.88 139.721 122.54C139.901 124.42 140.881 125.06 143.221 125.18C144.261 125.18 145.321 125.32 146.341 124.76L146.381 127.58C145.541 127.98 144.641 128.2 143.641 128.26C144.221 128.96 144.481 129.54 144.481 130.1C144.481 131.26 143.701 131.86 142.161 131.86C141.561 131.86 141.001 131.78 140.441 131.62V130.34C140.881 130.56 141.341 130.66 141.961 130.66C142.741 130.66 143.121 130.34 143.121 129.74C143.121 129.38 142.901 128.92 142.441 128.24C139.541 127.96 137.721 125.82 137.721 122.54C137.721 118.98 139.821 116.8 143.221 116.8C144.321 116.8 145.401 117.02 146.381 117.48V119.06C145.361 118.5 144.341 118.22 143.301 118.22ZM153.623 111.14C153.323 110.88 153.123 110.76 152.943 110.76C152.703 110.76 152.523 110.88 152.403 111.12C152.283 111.36 152.223 111.74 152.203 112.28H150.983C151.023 110.52 151.703 109.52 152.883 109.52C153.383 109.52 153.763 109.68 154.243 110.12L154.803 110.66C155.083 110.92 155.303 111.04 155.463 111.04C155.723 111.04 155.903 110.92 156.023 110.68C156.143 110.44 156.203 110.06 156.203 109.52H157.443C157.403 111.28 156.703 112.28 155.523 112.28C155.023 112.28 154.643 112.12 154.163 111.68L153.623 111.14ZM157.283 117.06H158.823L158.783 128H157.283V126.36C156.523 127.66 155.383 128.28 153.783 128.28C151.143 128.28 149.303 125.98 149.303 122.54C149.303 119.1 151.143 116.8 153.783 116.8C155.383 116.8 156.523 117.42 157.283 118.72V117.06ZM150.603 122.34C150.903 124.26 151.703 125.02 153.603 125.02C155.503 125.02 156.103 124.62 156.343 122.2C156.403 119.56 155.563 118.1 153.643 118.1C151.743 118.1 150.603 119.7 150.603 122.34ZM166.491 116.8C169.611 116.8 171.511 118.94 171.511 122.54C171.511 126.12 169.611 128.28 166.491 128.28C163.351 128.28 161.471 126.12 161.471 122.54C161.471 118.94 163.351 116.8 166.491 116.8ZM166.491 118.12C164.571 118.12 163.371 119.68 163.371 122.22C163.371 124.78 164.551 125.18 166.491 125.18C168.411 125.18 169.611 124.76 169.611 122.22C169.611 119.72 168.411 118.12 166.491 118.12Z" fill="white"/>
<path d="M254.429 122.03H246.269C246.309 124.95 247.749 125.45 250.129 125.57C251.509 125.57 252.809 125.59 254.089 124.91L254.129 127.39C252.829 127.95 251.469 128.23 250.069 128.23C246.589 128.11 244.389 126.05 244.389 122.59C244.529 119.01 246.469 116.75 249.769 116.75C252.689 116.87 254.189 118.23 254.429 121.35V122.03ZM252.869 120.45C252.669 119.23 251.549 117.69 249.769 117.69C247.769 117.69 246.469 119.15 246.469 120.47L252.869 120.45ZM261.861 121.49L265.161 117.01H266.981L263.121 122.83L267.381 127.95H264.481L261.981 124.15L259.281 127.95H256.381L260.741 122.71L256.941 117.01H258.861L261.861 121.49ZM272.607 132.11H270.307L271.187 125.41V117.17H272.987L272.687 118.67C273.427 117.37 274.587 116.75 276.187 116.75C278.847 116.75 280.667 119.05 280.667 122.49C280.667 125.93 278.847 128.23 276.187 128.23C274.587 128.23 273.427 127.61 272.687 126.31L272.607 132.11ZM279.507 122.17C279.507 119.53 278.367 117.95 276.447 117.95C274.547 117.95 273.407 119.53 273.407 122.17C273.407 124.83 274.647 125.27 276.547 125.27C278.447 125.27 279.507 124.83 279.507 122.17ZM285.588 115.03H283.788L283.888 112.75H285.488L285.588 115.03ZM283.588 127.95C283.848 124.11 283.908 120.45 283.888 117.01H285.488C285.368 120.29 285.468 123.97 285.888 127.95H283.588ZM295.443 118.89C295.043 118.65 294.663 118.65 294.083 118.65C292.063 118.65 291.223 120.13 291.223 122.49L291.623 127.95H288.803C289.623 123.43 289.723 121.79 289.563 117.11H291.223V118.23C291.583 117.95 292.883 116.95 294.623 116.95C294.863 116.95 295.063 116.97 295.423 117.05L295.443 118.89ZM305.123 117.01H306.663L306.623 127.95H305.123V126.31C304.363 127.61 303.223 128.23 301.623 128.23C298.983 128.23 297.143 125.93 297.143 122.49C297.143 119.05 298.983 116.75 301.623 116.75C303.223 116.75 304.363 117.37 305.123 118.67V117.01ZM298.443 122.29C298.743 124.21 299.543 124.97 301.443 124.97C303.343 124.97 303.943 124.57 304.183 122.15C304.243 119.51 303.403 118.05 301.483 118.05C299.583 118.05 298.443 119.65 298.443 122.29ZM314.891 118.17C312.551 118.17 311.311 119.83 311.311 122.49C311.491 124.37 312.471 125.01 314.811 125.13C315.851 125.13 316.911 125.27 317.931 124.71L317.971 127.53C317.131 127.93 316.231 128.15 315.231 128.21C315.811 128.91 316.071 129.49 316.071 130.05C316.071 131.21 315.291 131.81 313.751 131.81C313.151 131.81 312.591 131.73 312.031 131.57V130.29C312.471 130.51 312.931 130.61 313.551 130.61C314.331 130.61 314.711 130.29 314.711 129.69C314.711 129.33 314.491 128.87 314.031 128.19C311.131 127.91 309.311 125.77 309.311 122.49C309.311 118.93 311.411 116.75 314.811 116.75C315.911 116.75 316.991 116.97 317.971 117.43V119.01C316.951 118.45 315.931 118.17 314.891 118.17ZM325.213 111.09C324.913 110.83 324.713 110.71 324.533 110.71C324.293 110.71 324.113 110.83 323.993 111.07C323.873 111.31 323.813 111.69 323.793 112.23H322.573C322.613 110.47 323.293 109.47 324.473 109.47C324.973 109.47 325.353 109.63 325.833 110.07L326.393 110.61C326.673 110.87 326.893 110.99 327.053 110.99C327.313 110.99 327.493 110.87 327.613 110.63C327.733 110.39 327.793 110.01 327.793 109.47H329.033C328.993 111.23 328.293 112.23 327.113 112.23C326.613 112.23 326.233 112.07 325.753 111.63L325.213 111.09ZM328.873 117.01H330.413L330.373 127.95H328.873V126.31C328.113 127.61 326.973 128.23 325.373 128.23C322.733 128.23 320.893 125.93 320.893 122.49C320.893 119.05 322.733 116.75 325.373 116.75C326.973 116.75 328.113 117.37 328.873 118.67V117.01ZM322.193 122.29C322.493 124.21 323.293 124.97 325.193 124.97C327.093 124.97 327.693 124.57 327.933 122.15C327.993 119.51 327.153 118.05 325.233 118.05C323.333 118.05 322.193 119.65 322.193 122.29ZM338.081 116.75C341.201 116.75 343.101 118.89 343.101 122.49C343.101 126.07 341.201 128.23 338.081 128.23C334.941 128.23 333.061 126.07 333.061 122.49C333.061 118.89 334.941 116.75 338.081 116.75ZM338.081 118.07C336.161 118.07 334.961 119.63 334.961 122.17C334.961 124.73 336.141 125.13 338.081 125.13C340.001 125.13 341.201 124.71 341.201 122.17C341.201 119.67 340.001 118.07 338.081 118.07Z" fill="white"/>
<path d="M431.843 118.89C431.443 118.65 431.063 118.65 430.483 118.65C428.463 118.65 427.623 120.13 427.623 122.49L428.023 127.95H425.203C426.023 123.43 426.123 121.79 425.963 117.11H427.623V118.23C427.983 117.95 429.283 116.95 431.023 116.95C431.263 116.95 431.463 116.97 431.823 117.05L431.843 118.89ZM443.427 122.03H435.267C435.307 124.95 436.747 125.45 439.127 125.57C440.507 125.57 441.807 125.59 443.087 124.91L443.127 127.39C441.827 127.95 440.467 128.23 439.067 128.23C435.587 128.11 433.387 126.05 433.387 122.59C433.527 119.01 435.467 116.75 438.767 116.75C441.687 116.87 443.187 118.23 443.427 121.35V122.03ZM441.867 120.45C441.667 119.23 440.547 117.69 438.767 117.69C436.767 117.69 435.467 119.15 435.467 120.47L441.867 120.45ZM455.453 127.95H452.893L453.273 121.31C453.273 119.23 452.653 118.21 451.053 118.21C448.853 118.21 447.813 119.53 447.813 121.67L448.113 127.95H445.613L445.913 116.91H447.713V118.23C448.573 117.55 449.733 116.75 451.253 116.75C453.753 116.75 455.033 118.33 455.173 121.35L455.453 127.95ZM463.407 116.75C466.527 116.75 468.427 118.89 468.427 122.49C468.427 126.07 466.527 128.23 463.407 128.23C460.267 128.23 458.387 126.07 458.387 122.49C458.387 118.89 460.267 116.75 463.407 116.75ZM463.407 118.07C461.487 118.07 460.287 119.63 460.287 122.17C460.287 124.73 461.467 125.13 463.407 125.13C465.327 125.13 466.527 124.71 466.527 122.17C466.527 119.67 465.327 118.07 463.407 118.07ZM477.995 127.95H475.355L471.355 117.01H473.255L476.675 125.03L480.095 117.01H481.995L477.995 127.95ZM491.933 117.01H493.473L493.433 127.95H491.933V126.31C491.173 127.61 490.033 128.23 488.433 128.23C485.793 128.23 483.953 125.93 483.953 122.49C483.953 119.05 485.793 116.75 488.433 116.75C490.033 116.75 491.173 117.37 491.933 118.67V117.01ZM485.253 122.29C485.553 124.21 486.353 124.97 488.253 124.97C490.153 124.97 490.753 124.57 490.993 122.15C491.053 119.51 490.213 118.05 488.293 118.05C486.393 118.05 485.253 119.65 485.253 122.29ZM501.701 118.17C499.361 118.17 498.121 119.83 498.121 122.49C498.301 124.37 499.281 125.01 501.621 125.13C502.661 125.13 503.721 125.27 504.741 124.71L504.781 127.53C503.941 127.93 503.041 128.15 502.041 128.21C502.621 128.91 502.881 129.49 502.881 130.05C502.881 131.21 502.101 131.81 500.561 131.81C499.961 131.81 499.401 131.73 498.841 131.57V130.29C499.281 130.51 499.741 130.61 500.361 130.61C501.141 130.61 501.521 130.29 501.521 129.69C501.521 129.33 501.301 128.87 500.841 128.19C497.941 127.91 496.121 125.77 496.121 122.49C496.121 118.93 498.221 116.75 501.621 116.75C502.721 116.75 503.801 116.97 504.781 117.43V119.01C503.761 118.45 502.741 118.17 501.701 118.17ZM512.023 111.09C511.723 110.83 511.523 110.71 511.343 110.71C511.103 110.71 510.923 110.83 510.803 111.07C510.683 111.31 510.623 111.69 510.603 112.23H509.383C509.423 110.47 510.103 109.47 511.283 109.47C511.783 109.47 512.163 109.63 512.643 110.07L513.203 110.61C513.483 110.87 513.703 110.99 513.863 110.99C514.123 110.99 514.303 110.87 514.423 110.63C514.543 110.39 514.603 110.01 514.603 109.47H515.843C515.803 111.23 515.103 112.23 513.923 112.23C513.423 112.23 513.043 112.07 512.563 111.63L512.023 111.09ZM515.683 117.01H517.223L517.183 127.95H515.683V126.31C514.923 127.61 513.783 128.23 512.183 128.23C509.543 128.23 507.703 125.93 507.703 122.49C507.703 119.05 509.543 116.75 512.183 116.75C513.783 116.75 514.923 117.37 515.683 118.67V117.01ZM509.003 122.29C509.303 124.21 510.103 124.97 512.003 124.97C513.903 124.97 514.503 124.57 514.743 122.15C514.803 119.51 513.963 118.05 512.043 118.05C510.143 118.05 509.003 119.65 509.003 122.29ZM524.891 116.75C528.011 116.75 529.911 118.89 529.911 122.49C529.911 126.07 528.011 128.23 524.891 128.23C521.751 128.23 519.871 126.07 519.871 122.49C519.871 118.89 521.751 116.75 524.891 116.75ZM524.891 118.07C522.971 118.07 521.771 119.63 521.771 122.17C521.771 124.73 522.951 125.13 524.891 125.13C526.811 125.13 528.011 124.71 528.011 122.17C528.011 119.67 526.811 118.07 524.891 118.07Z" fill="white"/>
</svg>

<svg width="598" height="241" fill="none" xmlns="http://www.w3.org/2000/svg"><circle cx="120.025" cy="120.918" r="120.025" fill="#537322"/><circle cx="294.163" cy="120.918" r="120.025" fill="#405919"/><circle cx="477.976" cy="120.918" r="120.025" fill="#537322"/><path d="M71.44 115.08h-1.8l.1-2.28h1.6l.1 2.28zm-2 12.92c.26-3.84.32-7.5.3-10.94h1.6c-.12 3.28-.02 6.96.4 10.94h-2.3zm15.054 0h-2.56l.38-6.64c0-2.08-.62-3.1-2.22-3.1-2.2 0-3.24 1.32-3.24 3.46l.3 6.28h-2.5l.3-11.04h1.8v1.32c.86-.68 2.02-1.48 3.54-1.48 2.5 0 3.78 1.58 3.92 4.6l.28 6.6zm10.714-9.12a7.4 7.4 0 0 0-3.28-.78c-1.8 0-2.78.66-2.78 1.74 0 .98.58 1.44 2.5 1.86l.62.14c2.54.54 3.52 1.36 3.52 3.14 0 2.04-1.7 3.3-4.52 3.3-1.16 0-2.42-.22-3.84-.68v-2.64c1.34.7 2.62 1.04 3.88 1.04 1.7 0 2.44-.52 2.44-1.46-.22-.4-.4-.68-.56-.86-.14-.18-.78-.38-1.9-.64l-.62-.14c-2.22-.46-3.16-1.18-3.16-2.88 0-2.06 1.52-3.22 4.2-3.22 1.34 0 2.52.2 3.5.58v1.5zm5.809 13.28h-2.3l.88-6.7v-8.24h1.8l-.3 1.5c.74-1.3 1.9-1.92 3.5-1.92 2.66 0 4.48 2.3 4.48 5.74 0 3.44-1.82 5.74-4.48 5.74-1.6 0-2.76-.62-3.5-1.92l-.08 5.8zm6.9-9.94c0-2.64-1.14-4.22-3.06-4.22-1.9 0-3.04 1.58-3.04 4.22 0 2.66 1.24 3.1 3.14 3.1 1.9 0 2.96-.44 2.96-3.1zm6.081-7.14h-1.8l.1-2.28h1.6l.1 2.28zm-2 12.92c.26-3.84.32-7.5.3-10.94h1.6c-.12 3.28-.02 6.96.4 10.94h-2.3zm11.855-9.06c-.4-.24-.78-.24-1.36-.24-2.02 0-2.86 1.48-2.86 3.84l.4 5.46h-2.82c.82-4.52.92-6.16.76-10.84h1.66v1.12c.36-.28 1.66-1.28 3.4-1.28.24 0 .44.02.8.1l.02 1.84zm9.68-1.88h1.54l-.04 10.94h-1.5v-1.64c-.76 1.3-1.9 1.92-3.5 1.92-2.64 0-4.48-2.3-4.48-5.74 0-3.44 1.84-5.74 4.48-5.74 1.6 0 2.74.62 3.5 1.92v-1.66zm-6.68 5.28c.3 1.92 1.1 2.68 3 2.68s2.5-.4 2.74-2.82c.06-2.64-.78-4.1-2.7-4.1-1.9 0-3.04 1.6-3.04 4.24zm16.448-4.12c-2.34 0-3.58 1.66-3.58 4.32.18 1.88 1.16 2.52 3.5 2.64 1.04 0 2.1.14 3.12-.42l.04 2.82c-.84.4-1.74.62-2.74.68.58.7.84 1.28.84 1.84 0 1.16-.78 1.76-2.32 1.76-.6 0-1.16-.08-1.72-.24v-1.28c.44.22.9.32 1.52.32.78 0 1.16-.32 1.16-.92 0-.36-.22-.82-.68-1.5-2.9-.28-4.72-2.42-4.72-5.7 0-3.56 2.1-5.74 5.5-5.74 1.1 0 2.18.22 3.16.68v1.58c-1.02-.56-2.04-.84-3.08-.84zm10.322-7.08c-.3-.26-.5-.38-.68-.38-.24 0-.42.12-.54.36-.12.24-.18.62-.2 1.16h-1.22c.04-1.76.72-2.76 1.9-2.76.5 0 .88.16 1.36.6l.56.54c.28.26.5.38.66.38.26 0 .44-.12.56-.36.12-.24.18-.62.18-1.16h1.24c-.04 1.76-.74 2.76-1.92 2.76-.5 0-.88-.16-1.36-.6l-.54-.54zm3.66 5.92h1.54l-.04 10.94h-1.5v-1.64c-.76 1.3-1.9 1.92-3.5 1.92-2.64 0-4.48-2.3-4.48-5.74 0-3.44 1.84-5.74 4.48-5.74 1.6 0 2.74.62 3.5 1.92v-1.66zm-6.68 5.28c.3 1.92 1.1 2.68 3 2.68s2.5-.4 2.74-2.82c.06-2.64-.78-4.1-2.7-4.1-1.9 0-3.04 1.6-3.04 4.24zm15.888-5.54c3.12 0 5.02 2.14 5.02 5.74 0 3.58-1.9 5.74-5.02 5.74-3.14 0-5.02-2.16-5.02-5.74 0-3.6 1.88-5.74 5.02-5.74zm0 1.32c-1.92 0-3.12 1.56-3.12 4.1 0 2.56 1.18 2.96 3.12 2.96 1.92 0 3.12-.42 3.12-2.96 0-2.5-1.2-4.1-3.12-4.1zM254.429 122.03h-8.16c.04 2.92 1.48 3.42 3.86 3.54 1.38 0 2.68.02 3.96-.66l.04 2.48c-1.3.56-2.66.84-4.06.84-3.48-.12-5.68-2.18-5.68-5.64.14-3.58 2.08-5.84 5.38-5.84 2.92.12 4.42 1.48 4.66 4.6v.68zm-1.56-1.58c-.2-1.22-1.32-2.76-3.1-2.76-2 0-3.3 1.46-3.3 2.78l6.4-.02zm8.992 1.04 3.3-4.48h1.82l-3.86 5.82 4.26 5.12h-2.9l-2.5-3.8-2.7 3.8h-2.9l4.36-5.24-3.8-5.7h1.92l3 4.48zm10.746 10.62h-2.3l.88-6.7v-8.24h1.8l-.3 1.5c.74-1.3 1.9-1.92 3.5-1.92 2.66 0 4.48 2.3 4.48 5.74 0 3.44-1.82 5.74-4.48 5.74-1.6 0-2.76-.62-3.5-1.92l-.08 5.8zm6.9-9.94c0-2.64-1.14-4.22-3.06-4.22-1.9 0-3.04 1.58-3.04 4.22 0 2.66 1.24 3.1 3.14 3.1 1.9 0 2.96-.44 2.96-3.1zm6.081-7.14h-1.8l.1-2.28h1.6l.1 2.28zm-2 12.92c.26-3.84.32-7.5.3-10.94h1.6c-.12 3.28-.02 6.96.4 10.94h-2.3zm11.855-9.06c-.4-.24-.78-.24-1.36-.24-2.02 0-2.86 1.48-2.86 3.84l.4 5.46h-2.82c.82-4.52.92-6.16.76-10.84h1.66v1.12c.36-.28 1.66-1.28 3.4-1.28.24 0 .44.02.8.1l.02 1.84zm9.68-1.88h1.54l-.04 10.94h-1.5v-1.64c-.76 1.3-1.9 1.92-3.5 1.92-2.64 0-4.48-2.3-4.48-5.74 0-3.44 1.84-5.74 4.48-5.74 1.6 0 2.74.62 3.5 1.92v-1.66zm-6.68 5.28c.3 1.92 1.1 2.68 3 2.68s2.5-.4 2.74-2.82c.06-2.64-.78-4.1-2.7-4.1-1.9 0-3.04 1.6-3.04 4.24zm16.448-4.12c-2.34 0-3.58 1.66-3.58 4.32.18 1.88 1.16 2.52 3.5 2.64 1.04 0 2.1.14 3.12-.42l.04 2.82c-.84.4-1.74.62-2.74.68.58.7.84 1.28.84 1.84 0 1.16-.78 1.76-2.32 1.76-.6 0-1.16-.08-1.72-.24v-1.28c.44.22.9.32 1.52.32.78 0 1.16-.32 1.16-.92 0-.36-.22-.82-.68-1.5-2.9-.28-4.72-2.42-4.72-5.7 0-3.56 2.1-5.74 5.5-5.74 1.1 0 2.18.22 3.16.68v1.58c-1.02-.56-2.04-.84-3.08-.84zm10.322-7.08c-.3-.26-.5-.38-.68-.38-.24 0-.42.12-.54.36-.12.24-.18.62-.2 1.16h-1.22c.04-1.76.72-2.76 1.9-2.76.5 0 .88.16 1.36.6l.56.54c.28.26.5.38.66.38.26 0 .44-.12.56-.36.12-.24.18-.62.18-1.16h1.24c-.04 1.76-.74 2.76-1.92 2.76-.5 0-.88-.16-1.36-.6l-.54-.54zm3.66 5.92h1.54l-.04 10.94h-1.5v-1.64c-.76 1.3-1.9 1.92-3.5 1.92-2.64 0-4.48-2.3-4.48-5.74 0-3.44 1.84-5.74 4.48-5.74 1.6 0 2.74.62 3.5 1.92v-1.66zm-6.68 5.28c.3 1.92 1.1 2.68 3 2.68s2.5-.4 2.74-2.82c.06-2.64-.78-4.1-2.7-4.1-1.9 0-3.04 1.6-3.04 4.24zm15.888-5.54c3.12 0 5.02 2.14 5.02 5.74 0 3.58-1.9 5.74-5.02 5.74-3.14 0-5.02-2.16-5.02-5.74 0-3.6 1.88-5.74 5.02-5.74zm0 1.32c-1.92 0-3.12 1.56-3.12 4.1 0 2.56 1.18 2.96 3.12 2.96 1.92 0 3.12-.42 3.12-2.96 0-2.5-1.2-4.1-3.12-4.1zM431.843 118.89c-.4-.24-.78-.24-1.36-.24-2.02 0-2.86 1.48-2.86 3.84l.4 5.46h-2.82c.82-4.52.92-6.16.76-10.84h1.66v1.12c.36-.28 1.66-1.28 3.4-1.28.24 0 .44.02.8.1l.02 1.84zm11.584 3.14h-8.16c.04 2.92 1.48 3.42 3.86 3.54 1.38 0 2.68.02 3.96-.66l.04 2.48c-1.3.56-2.66.84-4.06.84-3.48-.12-5.68-2.18-5.68-5.64.14-3.58 2.08-5.84 5.38-5.84 2.92.12 4.42 1.48 4.66 4.6v.68zm-1.56-1.58c-.2-1.22-1.32-2.76-3.1-2.76-2 0-3.3 1.46-3.3 2.78l6.4-.02zm13.586 7.5h-2.56l.38-6.64c0-2.08-.62-3.1-2.22-3.1-2.2 0-3.24 1.32-3.24 3.46l.3 6.28h-2.5l.3-11.04h1.8v1.32c.86-.68 2.02-1.48 3.54-1.48 2.5 0 3.78 1.58 3.92 4.6l.28 6.6zm7.954-11.2c3.12 0 5.02 2.14 5.02 5.74 0 3.58-1.9 5.74-5.02 5.74-3.14 0-5.02-2.16-5.02-5.74 0-3.6 1.88-5.74 5.02-5.74zm0 1.32c-1.92 0-3.12 1.56-3.12 4.1 0 2.56 1.18 2.96 3.12 2.96 1.92 0 3.12-.42 3.12-2.96 0-2.5-1.2-4.1-3.12-4.1zm14.588 9.88h-2.64l-4-10.94h1.9l3.42 8.02 3.42-8.02h1.9l-4 10.94zm13.938-10.94h1.54l-.04 10.94h-1.5v-1.64c-.76 1.3-1.9 1.92-3.5 1.92-2.64 0-4.48-2.3-4.48-5.74 0-3.44 1.84-5.74 4.48-5.74 1.6 0 2.74.62 3.5 1.92v-1.66zm-6.68 5.28c.3 1.92 1.1 2.68 3 2.68s2.5-.4 2.74-2.82c.06-2.64-.78-4.1-2.7-4.1-1.9 0-3.04 1.6-3.04 4.24zm16.448-4.12c-2.34 0-3.58 1.66-3.58 4.32.18 1.88 1.16 2.52 3.5 2.64 1.04 0 2.1.14 3.12-.42l.04 2.82c-.84.4-1.74.62-2.74.68.58.7.84 1.28.84 1.84 0 1.16-.78 1.76-2.32 1.76-.6 0-1.16-.08-1.72-.24v-1.28c.44.22.9.32 1.52.32.78 0 1.16-.32 1.16-.92 0-.36-.22-.82-.68-1.5-2.9-.28-4.72-2.42-4.72-5.7 0-3.56 2.1-5.74 5.5-5.74 1.1 0 2.18.22 3.16.68v1.58c-1.02-.56-2.04-.84-3.08-.84zm10.322-7.08c-.3-.26-.5-.38-.68-.38-.24 0-.42.12-.54.36-.12.24-.18.62-.2 1.16h-1.22c.04-1.76.72-2.76 1.9-2.76.5 0 .88.16 1.36.6l.56.54c.28.26.5.38.66.38.26 0 .44-.12.56-.36.12-.24.18-.62.18-1.16h1.24c-.04 1.76-.74 2.76-1.92 2.76-.5 0-.88-.16-1.36-.6l-.54-.54zm3.66 5.92h1.54l-.04 10.94h-1.5v-1.64c-.76 1.3-1.9 1.92-3.5 1.92-2.64 0-4.48-2.3-4.48-5.74 0-3.44 1.84-5.74 4.48-5.74 1.6 0 2.74.62 3.5 1.92v-1.66zm-6.68 5.28c.3 1.92 1.1 2.68 3 2.68s2.5-.4 2.74-2.82c.06-2.64-.78-4.1-2.7-4.1-1.9 0-3.04 1.6-3.04 4.24zm15.888-5.54c3.12 0 5.02 2.14 5.02 5.74 0 3.58-1.9 5.74-5.02 5.74-3.14 0-5.02-2.16-5.02-5.74 0-3.6 1.88-5.74 5.02-5.74zm0 1.32c-1.92 0-3.12 1.56-3.12 4.1 0 2.56 1.18 2.96 3.12 2.96 1.92 0 3.12-.42 3.12-2.96 0-2.5-1.2-4.1-3.12-4.1z" fill="#fff"/></svg>
